modules/feathericon/icons/pizza.svg

<?xml version="1.0" encoding="UTF-8"?>
<svg width="24px" height="24px" viewBox="0 0 24 24" version="1.1" xmlns="http://www.w3.org/2000/svg" xmlns:xlink="http://www.w3.org/1999/xlink">
    <!-- Generator: sketchtool 52.2 (67145) - http://www.bohemiancoding.com/sketch -->
    <title>pizza</title>
    <desc>Created with sketchtool.</desc>
    <g id="food" stroke="none" stroke-width="1" fill="none" fill-rule="evenodd">
        <g id="pizza" fill="#000000">
            <path d="M12,22 C6.4771525,22 2,17.5228475 2,12 C2,6.4771525 6.4771525,2 12,2 C17.5228475,2 22,6.4771525 22,12 C22,17.5228475 17.5228475,22 12,22 Z M12,20 C16.418278,20 20,16.418278 20,12 C20,7.581722 16.418278,4 12,4 C7.581722,4 4,7.581722 4,12 C4,16.418278 7.581722,20 12,20 Z M7,15 L9,15 L9,17 L7,15 Z M17,15 L15,17 L15,15 L17,15 Z M9,7 L9,9 L7,9 L9,7 Z M15,7 L17,9 L15,9 L15,7 Z M12.5,9 C13.3284271,9 14,8.32842712 14,7.5 C14,6.67157288 13.3284271,6 12.5,6 C11.6715729,6 11,6.67157288 11,7.5 C11,8.32842712 11.6715729,9 12.5,9 Z M7.5,13 C8.32842712,13 9,12.3284271 9,11.5 C9,10.6715729 8.32842712,10 7.5,10 C6.67157288,10 6,10.6715729 6,11.5 C6,12.3284271 6.67157288,13 7.5,13 Z M16.5,14 C17.3284271,14 18,13.3284271 18,12.5 C18,11.6715729 17.3284271,11 16.5,11 C15.6715729,11 15,11.6715729 15,12.5 C15,13.3284271 15.6715729,14 16.5,14 Z M12,13 C12.5522847,13 13,12.5522847 13,12 C13,11.4477153 12.5522847,11 12,11 C11.4477153,11 11,11.4477153 11,12 C11,12.5522847 11.4477153,13 12,13 Z M11.5,18 C12.3284271,18 13,17.3284271 13,16.5 C13,15.6715729 12.3284271,15 11.5,15 C10.6715729,15 10,15.6715729 10,16.5 C10,17.3284271 10.6715729,18 11.5,18 Z" id="shape"></path>
        </g>
    </g>
</svg>

<svg width="24" height="24" viewBox="0 0 24 24" xmlns="http://www.w3.org/2000/svg"><path d="M12 22C6.477 22 2 17.523 2 12S6.477 2 12 2s10 4.477 10 10-4.477 10-10 10zm0-2a8 8 0 1 0 0-16 8 8 0 0 0 0 16zm-5-5h2v2l-2-2zm10 0l-2 2v-2h2zM9 7v2H7l2-2zm6 0l2 2h-2V7zm-2.5 2a1.5 1.5 0 1 0 0-3 1.5 1.5 0 0 0 0 3zm-5 4a1.5 1.5 0 1 0 0-3 1.5 1.5 0 0 0 0 3zm9 1a1.5 1.5 0 1 0 0-3 1.5 1.5 0 0 0 0 3zM12 13a1 1 0 1 0 0-2 1 1 0 0 0 0 2zm-.5 5a1.5 1.5 0 1 0 0-3 1.5 1.5 0 0 0 0 3z" fill="#000" fill-rule="evenodd"/></svg>
